libs/icons/src/svg/image.svg

<svg width="16" height="16" viewBox="0 0 16 16" fill="none" xmlns="http://www.w3.org/2000/svg">
<g clip-path="url(#clip0_3_3726)">
<path fill-rule="evenodd" clip-rule="evenodd" d="M11.3333 5.99999C11.5333 5.99999 11.7333 6.06666 11.8667 6.19999L15.8667 10.8667C16.1333 11.1333 16.0667 11.6 15.8 11.8C15.5333 12.0667 15.0667 12 14.8667 11.7333L11.3333 7.66666L7.2 12.4C7.06667 12.6 6.86667 12.6667 6.66667 12.6667C6.46667 12.6667 6.33333 12.6 6.2 12.4667L4.06667 10.3333L1.2 13.8C0.933333 14.0667 0.533333 14.1333 0.266667 13.8667C-1.98682e-08 13.6 -0.0666667 13.2 0.2 12.9333L3.53333 8.93333C3.6 8.73333 3.8 8.66666 4 8.66666C4.2 8.66666 4.4 8.73333 4.53333 8.86666L6.66667 11L10.8667 6.19999C10.9333 6.06666 11.1333 5.99999 11.3333 5.99999Z" fill="#202327"/>
<path fill-rule="evenodd" clip-rule="evenodd" d="M0 1.99999C0 1.59999 0.266667 1.33333 0.666667 1.33333H15.3333C15.7333 1.33333 16 1.59999 16 1.99999V14C16 14.4 15.7333 14.6667 15.3333 14.6667H0.666667C0.266667 14.6667 0 14.4 0 14V1.99999ZM1.33333 2.66666V13.3333H14.6667V2.66666H1.33333Z" fill="#202327"/>
<path fill-rule="evenodd" clip-rule="evenodd" d="M6 4.66666C5.6 4.66666 5.33333 4.93333 5.33333 5.33333C5.33333 5.73333 5.6 5.99999 6 5.99999C6.4 5.99999 6.66667 5.73333 6.66667 5.33333C6.66667 4.93333 6.4 4.66666 6 4.66666ZM4 5.33333C4 4.19999 4.86667 3.33333 6 3.33333C7.13333 3.33333 8 4.19999 8 5.33333C8 6.46666 7.13333 7.33333 6 7.33333C4.86667 7.33333 4 6.46666 4 5.33333Z" fill="#202327"/>
</g>
<defs>
<clipPath id="clip0_3_3726">
<rect width="16" height="16" fill="white"/>
</clipPath>
</defs>
</svg>

<svg xmlns="http://www.w3.org/2000/svg" viewBox="0 0 17 16" class="sageicon"><path fill-rule="evenodd" d="M11.333 6c.2 0 .4.067.534.2l4 4.667c.266.266.2.733-.067.933-.267.267-.733.2-.933-.067l-3.534-4.066L7.2 12.4c-.133.2-.333.267-.533.267a.605.605 0 0 1-.467-.2l-2.133-2.134L1.2 13.8c-.267.267-.667.333-.933.067C0 13.6-.067 13.2.2 12.933l3.333-4c.067-.2.267-.266.467-.266s.4.066.533.2L6.667 11l4.2-4.8c.066-.133.266-.2.466-.2Z"/><path fill-rule="evenodd" d="M0 2c0-.4.267-.667.667-.667h14.666c.4 0 .667.267.667.667v12c0 .4-.267.667-.667.667H.667C.267 14.667 0 14.4 0 14V2Zm1.333.667v10.666h13.334V2.667H1.333Z"/><path fill-rule="evenodd" d="M6 4.667c-.4 0-.667.266-.667.666S5.6 6 6 6s.667-.267.667-.667S6.4 4.667 6 4.667Zm-2 .666c0-1.133.867-2 2-2s2 .867 2 2c0 1.134-.867 2-2 2s-2-.866-2-2Z"/></svg>
